!!!!SEGMENT: Mlu2001-Mater_floreat.krn
!!!id: Mlu2001
!!!AGN: Motet
!!!SCT: Lowinsky (1968)
!!!voices: 4
!!!COM: Pierre Moulu
!!!OTL: Mater floreat
**kern	**kern	**kern	**kern
*part4	*part3	*part2	*part1
*staff4	*staff3	*staff2	*staff1
*I"Bassus	*I"Tenor	*I"Altus	*I"Superius
*I'B	*I'T	*I'A	*I'S
*clefF4	*clefGv2	*clefGv2	*clefG2
*k[b-]	*k[b-]	*k[b-]	*k[b-]
*F:	*F:	*F:	*F:
*M2/1	*M2/1	*M2/1	*M2/1
*met(C|)	*met(C|)	*met(C|)	*met(C|)
!!Section: Prima pars: Mater floreat
!!!OMD: Prima pars: Mater floreat
=1	=1	=1	=1
0r	0r	0r	0f
=2	=2	=2	=2
0r	0r	1r	1f
.	.	[1c	[1cc
=3	=3	=3	=3
0r	1r	1c]	2cc]
.	.	.	2cc
.	[1F	1c	2a
.	.	.	2f
=4	=4	=4	=4
0r	1F]	1.f	0a
.	1F	.	.
.	.	2f	.
=5	=5	=5	=5
0C	1.c	2e	0g
.	.	2c	.
.	.	[1e	.
.	2c	.	.
=6	=6	=6	=6
1C	1c	2e]	1r
.	.	4d	.
.	.	4c	.
[1F	1r	2d	[1a
.	.	2c	.
=7	=7	=7	=7
2F]	1.c	1f	2a]
2F	.	.	2a
2E	.	1r	2g
2C	2c	.	2a
=8	=8	=8	=8
0D	2A	1.F	2f
.	2F	.	1a
.	[1A	.	.
.	.	2F	4g
.	.	.	4f
=9	=9	=9	=9
[0C	1A]	2.c	1e
.	.	4d	.
.	2G	4e	2r
.	.	4f	.
.	[2c	[2g	2c
=10	=10	=10	=10
0C]	2c]	4g]	1.g
.	.	4f	.
.	4B-y	1f	.
.	4A	.	.
.	1G	.	.
.	.	2e	2g
=11	=11	=11	=11
0r	0F	1f	2a
.	.	.	4f
.	.	.	4g
.	.	2r	4a
.	.	.	4b-y
.	.	2c	[2cc
=12	=12	=12	=12
0r	1r	1.f	4cc]
.	.	.	4b-y
.	.	.	4a
.	.	.	4g
.	1F	.	1a
.	.	2f	.
=13	=13	=13	=13
1r	1.c	2.e	1g
.	.	4f	.
1C	.	1g	2.cc
.	2c	.	.
.	.	.	4b-y
=14	=14	=14	=14
1.F	2d	0f	4a
.	.	.	4g
.	1c	.	1a
2F	4B-y	.	4g
.	4A	.	4f
=15	=15	=15	=15
1G	2.B-y	1d	1b-y
.	4c	.	.
[1F	2d	2f	[1a
.	[2c	4e	.
.	.	4d	.
=16	=16	=16	=16
2F]	4c]	2c	2a]
.	8B-yL	.	.
.	8AJ	.	.
2D	2B-y	2d	4g
.	.	.	4f
2E	2G	2B-y	2g
2F	2d	2f	2a
=17	=17	=17	=17
2.G	2d	1d	2.b-y
.	2B-y	.	.
4F	.	.	4a
4E	2.c	2r	4g
4D	.	.	4f
2E	.	[2e	[2g
.	4B-y	.	.
=18	=18	=18	=18
2C	4c	4e]	4g]
.	4B-y	4d	4e
2.F	4A	4c	2.a
.	4G	4B-y	.
.	2F	2A	.
4E	.	.	4g
4D	[2B-y	[2d	4f
4C	.	.	4e
=19	=19	=19	=19
2BB-y	4B-]	2d]	4d
.	4A	.	4c
2D	2F	2B-y	1f
1C	1G	1c	.
.	.	.	2e
=20	=20	=20	=20
0FF	1F	2r	0f
.	.	1c	.
.	1r	.	.
.	.	2A	.
=21	=21	=21	=21
0r	2r	2B-y	0r
.	1c	2c	.
.	.	1F	.
.	2A	.	.
=22	=22	=22	=22
2r	2B-y	2G	0r
1F	2c	1A	.
.	4F	.	.
.	4G	.	.
2D	4A	4G	.
.	4B-y	4F	.
=23	=23	=23	=23
2E	2c	2G	0r
2F	2.d	1A	.
2C	.	.	.
.	4c	.	.
2E	[2c	2G	.
=24	=24	=24	=24
1.D	2c]	2.F	0r
.	2B-y	.	.
.	.	4E	.
.	2A	4F	.
.	.	4G	.
2C	[2c	[2A	.
=25	=25	=25	=25
2AA	2c]	2A]	0r
1C	4B-y	4G	.
.	4A	4F	.
.	2.G	4E	.
.	.	4F	.
4BB-y	.	4G	.
4AA	4F	4A	.
=26	=26	=26	=26
2GG	2G	2B-y	1r
2FF	1A	1c	.
2.C	.	.	2r
.	4G	4B-y	[2cc
4D	4F	4A	.
=27	=27	=27	=27
2E	1c	4G	2cc]
.	.	4F	.
1F	.	2A	2cc
.	2r	1G	1b-y
2E	2G	.	.
=28	=28	=28	=28
0F	1c	1F	2a
.	.	.	2f
.	4c	2r	1cc
.	4B-y	.	.
.	4A	[2f	.
.	4G	.	.
=29	=29	=29	=29
0r	1F	2f]	1a
.	.	2f	.
.	2r	2e	2.g
.	[2c	2c	.
.	.	.	4f
=30	=30	=30	=30
0r	2c]	1e	2g
.	2c	.	1a
.	1B-y	1d	.
.	.	.	2g
=31	=31	=31	=31
1.F	2A	2c	2.a
.	2F	1f	.
.	.	.	4g
.	1c	.	4a
.	.	.	4b-y
2F	.	4e	[2cc
.	.	4d	.
=32	=32	=32	=32
1E	1G	1c	4cc]
.	.	.	4b-y
.	.	.	4a
.	.	.	4g
2D	2r	1d	1f
2BB-y	[2B-y	.	.
=33	=33	=33	=33
1F	2B-]	1.c	2r
.	2A	.	2f
1C	1G	.	1e
.	.	4B-y	.
.	.	4A	.
=34	=34	=34	=34
2r	2F	1A	1d
1F	1A	.	.
.	.	2r	1c
4E	4G	[2c	.
4D	4F	.	.
=35	=35	=35	=35
2E	2G	2c]	1r
2C	1c	2c	.
1G	.	1d	1g
.	2Bni	.	.
=36	=36	=36	=36
0C	1c	1.e	2g
.	.	.	2g
.	2r	.	[1g
.	[2G	4d	.
.	.	4c	.
=37	=37	=37	=37
2r	2G]	2d	1g]
2C	2G	2.c	.
2C	1A	.	1e
.	.	4B-y	.
2C	.	2c	.
=38	=38	=38	=38
1D	1F	2A	1f
.	.	2.B-y	.
1BB-y	2.G	.	1d
.	.	4A	.
.	.	[2G	.
.	4F	.	.
=39	=39	=39	=39
1.C	4E	4G]	1c
.	4D	4F	.
.	1E	1A	.
.	.	.	2r
4BB-y	4D	4G	[2g
4AA	4C	4F	.
=40	=40	=40	=40
1GG	1G	1E	2g]
.	.	.	2g
1FF	1C	2F	2.a
.	.	[2c	.
.	.	.	8gL
.	.	.	8fJ
=41	=41	=41	=41
2r	0r	2c]	2g
1F	.	2c	2.a
.	.	1d	.
.	.	.	4g
2F	.	.	4f
.	.	.	4e
=42	=42	=42	=42
2G	2r	2B-y	4d
.	.	.	4c
2E	1c	2c	2.cc
2.F	.	2A	.
.	.	.	4b-y
.	2c	2F	4a
4E	.	.	4g
=43	=43	=43	=43
2D	2d	2.B-y	2f
1E	2B-y	.	2.g
.	.	8AL	.
.	.	8GJ	.
.	2.c	1G	.
.	.	.	4f
[2C	.	.	4e
.	4B-y	.	4d
=44	=44	=44	=44
2C]	2A	2r	1c
2.F	4G	2F	.
.	4F	.	.
.	1G	[1c	1r
8EL	.	.	.
8DJ	.	.	.
2E	.	.	.
=45	=45	=45	=45
2.A	1F	2c]	1r
.	.	2c	.
4G	.	.	.
4F	1r	1d	2r
4E	.	.	.
[2F	.	.	2f
=46	=46	=46	=46
2F]	0r	2c	1.cc
4E	.	1f	.
4D	.	.	.
1C	.	.	.
.	.	2e	2cc
=47	=47	=47	=47
0r	0r	2f	1dd
.	.	2B-y	.
.	.	2r	2cc
.	.	[2f	2a
=48	=48	=48	=48
0r	0r	4f]	2cc
.	.	4e	.
.	.	4c	4b-y
.	.	4d	4a
.	.	4e	2g
.	.	4f	.
.	.	[2g	[2b-y
=49	=49	=49	=49
1r	2r	4g]	2b-]
.	.	4f	.
.	2F	1f	1a
2r	[1c	.	.
2C	.	2e	2g
=50	=50	=50	=50
1.F	2c]	1f	0a
.	2c	.	.
.	1d	2r	.
2F	.	2d	.
=51	=51	=51	=51
1G	1B-y	2d	2r
.	.	2d	2g
1E	[1c	1e	2g
.	.	.	2g
=52	=52	=52	=52
1F	2c]	2c	1a
.	2A	2.f	.
2D	1B-y	.	2f
.	.	4e	.
[2G	.	4d	[2b-y
.	.	4c	.
=53	=53	=53	=53
4G]	1G	1B-y	4b-]
4F	.	.	4a
4E	.	.	4g
4D	.	.	4f
1C	2r	2.c	2.e
.	[2c	.	.
.	.	4d	4f
=54	=54	=54	=54
2r	2c]	2e	2g
1F	2c	2f	2.a
.	1d	2r	.
.	.	.	4g
2F	.	2d	4f
.	.	.	4e
=55	=55	=55	=55
1G	1B-y	2d	2d
.	.	2d	2g
1E	[1c	1e	2g
.	.	.	2g
=56	=56	=56	=56
1F	2c]	2c	1a
.	2A	2.f	.
2D	[1B-y	.	2f
.	.	4e	.
[2G	.	4d	[2b-y
.	.	4c	.
=57	=57	=57	=57
4G]	1B-]	2d	4b-]
4F	.	.	4a
4E	.	1G	4g
4D	.	.	4f
1C	2r	.	[1e
.	[2c	[2A	.
=58	=58	=58	=58
2r	2c]	2A]	1e]
1C	4B-y	4G	.
.	4A	4F	.
.	2.G	1E	1r
4BB-y	.	.	.
4AA	4A	.	.
=59	=59	=59	=59
2GG	2B-y	2r	0r
2FF	2.A	1c	.
2AA	.	.	.
.	4G	.	.
2BB-y	[2F	4B-y	.
.	.	4A	.
=60	=60	=60	=60
1C	2F]	2G	0r
.	2E	2.A	.
2AA	1F	.	.
.	.	4G	.
2BB-y	.	[2F	.
=61	=61	=61	=61
1GG	0r	2F]	1g
.	.	2E	.
[1FF	.	1F	2a
.	.	.	2f
=62	=62	=62	=62
1FF]	0r	2r	2.cc
.	.	2c	.
.	.	.	4cc
1r	.	2d	2b-y
.	.	2c	[2a
=63	=63	=63	=63
0r	0r	2.f	2a]
.	.	.	4g
.	.	4f	4f
.	.	2e	2.g
.	.	4d	.
.	.	4c	4a
=64	=64	=64	=64
0r	2r	2d	2b-y
.	2F	1c	1cc
.	2A	.	.
.	2B-y	[2f	4b-y
.	.	.	4a
=65	=65	=65	=65
2r	2.c	4f]	1g
.	.	8eL	.
.	.	8dJ	.
2C	.	2e	.
.	4B-y	.	.
2D	2A	2f	1f
2E	2G	[2c	.
=66	=66	=66	=66
2.F	1A	2c]	2r
.	.	2A	2c
4E	.	.	.
2D	2r	2B-y	2d
2C	[2A	2c	2e
=67	=67	=67	=67
1D	2A]	2.F	1.f
.	2B-y	.	.
.	.	4G	.
1C	2.c	4A	.
.	.	4B-y	.
.	.	[2c	2e
.	4B-y	.	.
=68	=68	=68	=68
1r	1G	2c]	2.d
.	.	2B-y	.
.	.	.	4e
2r	2F	2c	4f
.	.	.	4g
2FF	[2c	2F	[2a
=69	=69	=69	=69
2AA	2c]	2r	2a]
2BB-y	2B-y	2F	4g
.	.	.	4f
2C	2A	2A	2e
2D	4G	2B-y	[2f
.	4F	.	.
=70	=70	=70	=70
1C	1G	1.c	2f]
.	.	.	2e
[1FF	[1F	.	[1f
.	.	2d	.
=71	=71	=71	=71
0FF_	0F_	1c	0f_
.	.	[1c	.
=	=	=	=
00FF]	00F]	00c]	00f]
=||	=||	=||	=||
*M2/1	*M2/1	*M2/1	*M2/1
*met(C|)	*met(C|)	*met(C|)	*met(C|)
!!Section: Secunda pars: Rutilet delphicus
!!!OMD: Secunda pars: Rutilet delphicus
0r	0r	1.f	0r
.	.	2f	.
=72	=72	=72	=72
0r	0r	2e	1r
.	.	2d	.
.	.	1f	[1cc
=73	=73	=73	=73
0r	0r	1c	2cc]
.	.	.	2cc
.	.	2r	2b-y
.	.	[2f	2a
=74	=74	=74	=74
0r	2r	2f]	1cc
.	1c	2c	.
.	.	1e	1g
.	2c	.	.
=75	=75	=75	=75
0r	2B-y	2d	2r
.	2A	1e	1cc
.	1c	.	.
.	.	4d	2g
.	.	4c	.
=76	=76	=76	=76
1r	1G	2d	1b-y
.	.	2e	.
[1F	2r	[1f	1a
.	[2c	.	.
=77	=77	=77	=77
2F]	2c]	1f]	2r
2F	2F	.	2a
2E	1B-y	2r	2g
2D	.	[2f	4f
.	.	.	4g
=78	=78	=78	=78
1F	1A	2f]	4a
.	.	.	4b-y
.	.	2c	1cc
1C	2r	[1e	.
.	[2c	.	4b-y
.	.	.	4a
=79	=79	=79	=79
2r	2c]	2e]	2g
1F	2F	4d	2.a
.	.	4c	.
.	1A	2d	.
.	.	.	4b-y
2C	.	[2e	[2cc
=80	=80	=80	=80
1E	1G	2e]	4cc]
.	.	.	4b-y
.	.	2c	4a
.	.	.	4g
1D	2r	[1d	1f
.	[2B-y	.	.
=81	=81	=81	=81
2r	2B-]	2d]	2r
1F	2A	4c	1a
.	.	4B-y	.
.	1c	4A	.
.	.	4G	.
2C	.	[2c	2g
=82	=82	=82	=82
1D	1F	2c]	1f
.	.	2B-y	.
1AA	2r	2.c	2.e
.	[2A	.	.
.	.	4B-y	4d
=83	=83	=83	=83
2r	2A]	4A	2e
.	.	4G	.
1D	2A	2F	1f
.	1F	2A	.
2D	.	2B-y	4e
.	.	.	4d
=84	=84	=84	=84
2C	2G	1.c	2e
2AA	1A	.	2c
[1C	.	.	2r
.	4G	4B-y	[2cc
.	4F	4A	.
=85	=85	=85	=85
2C]	2E	2G	2cc]
4BB-y	1F	2A	2cc
4AA	.	.	.
1GG	.	1B-y	2b-y
.	2E	.	2g
=86	=86	=86	=86
1FF	2F	1.A	2a
.	1c	.	4f
.	.	.	4g
2r	.	.	4a
.	.	.	4b-y
[2F	2c	4G	[2cc
.	.	4F	.
=87	=87	=87	=87
2F]	2A	1c	2cc]
2F	2F	.	4b-y
.	.	.	4a
2E	2.c	2r	2g
2C	.	[2c	[2a
.	4B-y	.	.
=88	=88	=88	=88
1D	2A	2c]	4a]
.	.	.	4g
.	2B-y	2B-y	2.f
1C	1G	1c	.
.	.	.	8eL
.	.	.	8dJ
.	.	.	2e
=89	=89	=89	=89
0FF	1F	0A	0f
.	1r	.	.
=90	=90	=90	=90
1r	1c	1r	1r
1F	[1c	1f	1a
=91	=91	=91	=91
[0F	0c]	1f	0a
.	.	2r	.
.	.	2c	.
=92	=92	=92	=92
0F]	0r	1.f	2r
.	.	.	2a
.	.	.	[1cc
.	.	4e	.
.	.	4d	.
=93	=93	=93	=93
0r	1r	2.c	2cc]
.	.	.	4b-y
.	.	4d	4a
.	2r	2e	2g
.	2F	[2f	[2a
=94	=94	=94	=94
0r	2A	4f]	4a]
.	.	4e	4g
.	2B-y	2.d	2.f
.	1c	.	.
.	.	4c	4e
.	.	[2c	4d
.	.	.	4c
=95	=95	=95	=95
1r	1G	2c]	1d
.	.	2B-y	.
2r	2.c	2A	1c
2C	.	2G	.
.	4B-y	.	.
=96	=96	=96	=96
2D	4A	2r	1r
.	4G	.	.
2E	2.c	2G	.
1F	.	2A	[1f
.	4B-y	.	.
.	4A	[2c	.
.	4G	.	.
=97	=97	=97	=97
1D	1F	2c]	2f]
.	.	2B-y	2f
[1C	2G	2c	2e
.	[2c	2G	2c
=98	=98	=98	=98
1C]	2c]	2r	1.g
.	4B-y	1c	.
.	4A	.	.
1r	1G	.	.
.	.	2B-y	2g
=99	=99	=99	=99
2r	1F	2A	1.a
1F	.	2F	.
.	1r	2c	.
2E	.	2c	2g
=100	=100	=100	=100
2D	2r	1d	0f
2BB-y	1B-y	.	.
1F	.	[1c	.
.	2A	.	.
=101	=101	=101	=101
2E	2G	1c]	2g
1F	2F	.	2.a
.	[1c	1r	.
.	.	.	4g
2G	.	.	[2g
=102	=102	=102	=102
1A	2c]	1F	2g]
.	2c	.	2f#i
2G	[1d	2.B-y	1g
[2B-y	.	.	.
.	.	4c	.
=103	=103	=103	=103
2B-]	2d]	4d	0r
.	.	4e	.
2A	2c	1f	.
1G	1B-y	.	.
.	.	2e	.
=104	=104	=104	=104
0F	2A	1f	2r
.	2.c	.	2a
.	.	2r	1cc
.	4B-y	.	.
.	2A	2c	.
=105	=105	=105	=105
0r	1G	2d	1b-y
.	.	2e	.
.	[1F	[1f	2a
.	.	.	[2cc
=106	=106	=106	=106
0r	1F]	1f]	2cc]
.	.	.	4b-y
.	.	.	4a
.	1r	1e	2.g
.	.	.	4a
=107	=107	=107	=107
0r	0r	2.d	4b-y
.	.	.	4cc
.	.	.	1dd
.	.	4c	.
.	.	4d	.
.	.	4e	.
.	.	[2f	4cc
.	.	.	4b-y
=108	=108	=108	=108
1r	2r	4f]	4a
.	.	4e	4g
.	2A	2c	2.cc
2r	1c	1e	.
.	.	.	4b-y
2C	.	.	[2a
=109	=109	=109	=109
2D	1B-y	1d	2a]
2E	.	.	2g
[1F	2A	2c	[1a
.	[2c	[2A	.
=110	=110	=110	=110
1F]	2c]	2A]	1a]
.	4B-y	2.d	.
.	4A	.	.
1E	2.G	.	1r
.	.	8cL	.
.	.	8B-yJ	.
.	.	2c	.
.	4A	.	.
=111	=111	=111	=111
2.D	4B-y	2d	0r
.	4c	.	.
.	2.d	2.f	.
4C	.	.	.
4D	.	.	.
4E	4c	4e	.
[2F	[2A	[2d	.
=112	=112	=112	=112
4F]	4A]	4d]	0r
4E	4G	4c	.
2C	1G	1c	.
1D	.	.	.
.	2F	2Bni	.
=113	=113	=113	=113
0C	2G	1c	0e
.	1A	.	.
.	.	2r	.
.	4G	[2c	.
.	4F	.	.
=114	=114	=114	=114
2r	2A	2c]	1e
1C	2G	2c	.
.	2r	1G	[1g
2C	2c	.	.
=115	=115	=115	=115
1GG	2d	0B-y	1g]
.	2B-y	.	.
1BB-y	1d	.	1f
=	=	=	=
*M3/1	*M3/1	*M3/1	*M3/1
*met(3)	*met(3)	*met(3)	*met(3)
0C	0c	0G	0e
1r	1r	1r	1r
=116	=116	=116	=116
1C	1c	1G	1e
1C	1c	1G	1e
1C	1c	1G	1e
=117	=117	=117	=117
0D	0B-y	0d	0f
1E	1B-y	1G	1g
=118	=118	=118	=118
0F	0A	0c	0a
1r	1r	1r	1r
=119	=119	=119	=119
1C	1G	1c	1e
1C	1G	1c	1e
1C	1c	1G	1e
=120	=120	=120	=120
0D	0B-y	0d	0f
1E	1B-y	1G	1g
=121	=121	=121	=121
0F	1A	1.c	1.a
.	1.F	.	.
.	.	4B-y	2g
.	.	4A	.
1D	.	1B-y	1f
.	2G	.	.
=122	=122	=122	=122
1.C	1.A	1.c	1.e
4BB-y	4G	2d	2f
4AA	4F	.	.
1GG	2E	1B-y	1g
.	2D	.	.
=123	=123	=123	=123
1FF	1.F	1A	1.a
0C	.	0c	.
.	4E	.	4g
.	4D	.	4f
.	1E	.	1g
=	=	=	=
*M2/1	*M2/1	*M2/1	*M2/1
*met(C|)	*met(C|)	*met(C|)	*met(C|)
[0FF	0F	1c	0a
.	.	2r	.
.	.	2c	.
=124	=124	=124	=124
1FF]	0r	2.f	2r
.	.	.	2a
.	.	4f	.
1r	.	2f	2.cc
.	.	2e	.
.	.	.	4cc
=125	=125	=125	=125
0r	0r	1d	2b-y
.	.	.	2a
.	.	2.g	1g
.	.	4f	.
=126	=126	=126	=126
2r	1r	4e	2.cc
.	.	4d	.
2C	.	2e	.
.	.	.	4b-y
2.F	2r	2c	4a
.	.	.	4g
.	2A	[2f	[2a
4F	.	.	.
=127	=127	=127	=127
2F	2.c	4f]	4a]
.	.	4e	4g
2E	.	2c	1g
.	4c	.	.
1D	2B-y	2.d	.
.	2A	.	2f#i
.	.	4c	.
=128	=128	=128	=128
2.G	1G	4B-y	0g
.	.	4A	.
.	.	2B-y	.
4F	.	.	.
4E	2.c	1G	.
4D	.	.	.
[2C	.	.	.
.	4B-y	.	.
=129	=129	=129	=129
4C]	4A	2r	0r
4BB-y	4G	.	.
4AA	2.A	1c	.
4GG	.	.	.
2FF	.	.	.
.	4G	.	.
2AA	[2F	4B-y	.
.	.	4A	.
=130	=130	=130	=130
1GG	2F]	1B-y	0r
.	2E	.	.
1FF	1F	[1A	.
=131	=131	=131	=131
1r	1.c	1A]	1r
[1F	.	2.f	[1a
.	2A	.	.
.	.	4e	.
=132	=132	=132	=132
2F]	0c	2f	2a]
2E	.	2.g	2g
1A	.	.	2e
.	.	4f	.
.	.	[2f	2f
=133	=133	=133	=133
1G	1B-y	2f]	1g
.	.	2e	.
[1F	[1A	1f	2r
.	.	.	2c
=134	=134	=134	=134
1F]	0A]	2r	1.f
.	.	2c	.
1r	.	2c	.
.	.	2c	2e
=135	=135	=135	=135
2r	2r	2d	2f
2C	1c	2e	2g
[1F	.	2.f	1a
.	2A	.	.
.	.	4e	.
=136	=136	=136	=136
2F]	1.c	2f	2r
2E	.	2.g	2g
1A	.	.	2e
.	.	4f	.
.	2c	[2f	2f
=137	=137	=137	=137
1G	1B-y	2f]	2g
.	.	2e	2g
[1F	[1A	1f	1c
=138	=138	=138	=138
0F]	0A]	2r	2r
.	.	2f	2cc
.	.	2f	2cc
.	.	2f	2a
=139	=139	=139	=139
1r	1r	1g	1b-y
2r	2r	2.f	2cc
2F	2c	.	4f
.	.	8eL	4g
.	.	8dJ	.
=140	=140	=140	=140
2F	2c	2c	4a
.	.	.	4b-y
2F	2A	1f	2cc
1G	1B-y	.	2b-y
.	.	2e	4a
.	.	.	4g
=141	=141	=141	=141
2.F	2c	1.f	2.a
.	4F	.	.
4E	4G	.	4g
2D	4A	.	4f
.	4B-y	.	4e
2C	2c	2e	[2g
=142	=142	=142	=142
1D	4B-y	2d	4g]
.	4A	.	4f
.	4G	2B-y	1f
.	4F	.	.
1C	1G	1c	.
.	.	.	2e
=143	=143	=143	=143
0r	0F	2r	2f
.	.	2f	2cc
.	.	2f	2cc
.	.	2f	2a
=144	=144	=144	=144
1r	1r	1g	1b-y
2r	2r	2.f	2cc
2F	2c	.	4f
.	.	8eL	4g
.	.	8dJ	.
=145	=145	=145	=145
2F	2c	2c	4a
.	.	.	4b-y
2F	2A	1f	2cc
1G	1B-y	.	2b-y
.	.	2e	4a
.	.	.	4g
=146	=146	=146	=146
2.F	2c	1.f	2.a
.	4F	.	.
4E	4G	.	4g
2D	4A	.	4f
.	4B-y	.	4e
2C	2c	2e	[2g
=147	=147	=147	=147
1D	4B-y	2d	4g]
.	4A	.	4f
.	4G	2B-y	1f
.	4F	.	.
1C	1G	1c	.
.	.	.	2e
=148	=148	=148	=148
00FFl	00Fl	00cl	00fl
==	==	==	==
*-	*-	*-	*-
!!!system-decoration: [*]
!!!RDF**kern: i = editorial accidental
!!!RDF**kern: l = terminal long
!!!ENC: Benjamin Ory
!!!END: 2023/1/21
!!!EED: Benjamin Ory
!!!EEV: 2023/01/21
!!!YEC: Copyright 2023 Benjamin Ory, All Rights Reserved
!!!ONB: Translated from MusicXML on 2023/01/21
